X:1
T:Ridicolosamente
T:Ridicolosamente
T:No. 10 from Visions fugitives, Op. 22
T:Sergey Prokofiev
C:Sergey Prokofiev
%%score { ( 1 3 ) | 2 }
L:1/8
Q:1/4=96
M:2/4
K:Db
V:1 treble nm="Piano" snm="Pno."
V:3 treble 
V:2 treble 
V:1
!p! z4 | z4 |!f!!>(!{/G} (!>!F4!>)! |!p! f) z z2 |!f!!>(!{/G} (!>!F4!>)! |!p! f) z z2 | %6
{/G} (!tenuto!F2 d) z |{/G} (!tenuto!F2 f) z |{/G} (!tenuto!F2 d) z |{/G} (!tenuto!F2 f) F/F/ | %10
 .F.d.=A.F | .F.d.f.F | (.F{/.c}.d).=A.F | (F/d/f) .f.F | .F (=a/4=g/4f/4e/4 .d) (a/4g/4f/4e/4 | %15
 .d) (=a/4=g/4f/4e/4 .d)!mp!{=d^f=a} .=d' | (d3{=A=d^f} .=a) | F2-!<(! F/_F/E/=D/!<)! | %18
 D2-!<(! D/A/G/e/!<)! | d3!p!{=e^f^g=a} .=b | z =A ^G/A/=G/_A/ | ^F x x2 | %22
 .F (=a/4=g/4f/4e/4 .d) (a/4g/4f/4e/4 | .d) (=a/4=g/4f/4e/4 .d){g=b=d'} .=g' | %24
!<(! !>!c<c- c{ac'e'}.a'!<)! |!f! d/ d7/2 |!>(! d2- d/A/G/e/ | d3{=e^f^g=a} .=b!>)! | %28
!p! z =A ^G/A/=G/_A/ | ^F x x2 |!>(! .[DF].[GB].[DF].[GB]!>)! | .D.[GB].D.[GB] | %32
!>(! .[DF].[GB].[DF].[GB]!>)! | z2 (D2- | D2- D/A,/G,/E/ | D4- | D3){=E^F^G=A} .=B | B,4- | %38
 B,2 z2 |] %39
V:2
 .[B,D].[GB].[B,D].[GB] | .[B,D].[GB].[B,D].[GB] | .[B,D].[GB].[B,D].[GB] | %3
 .[B,D].[GB].[B,D].[GB] | .[B,D].[GB].[B,D].[GB] | .[B,D].[GB].[B,D].[GB] | %6
 .[B,D].[GB].[B,D].[GB] | .[B,D].[GB].[B,D].[GB] | .[B,D].[GB].[B,D].[GB] | %9
 .[B,D].[GB].[B,D].[GB] | .[B,D].[GB].[B,D].[GB] | .[B,D].[GB].[B,D].[GB] | %12
 .[B,D].[GB].[B,D].[GB] | .[B,D].[GB].[B,D].[GB] | .[B,D].[GB].[B,D].[GB] | %15
 .[B,D].[GB].[B,D].[GB] | .[B,D].[GB].[B,D].[GB] | .[B,D].[GB].[B,D].[GB] | %18
 .[=G,=B,].[F=A].[G,B,].[FA] | .[=G,=B,].[F=A].[G,B,] .[=E,^G,=D] | .[B,D].F.=E._E | %21
 .=D.[_D_F] .[CE].[=B,=D] | .[B,D].[GB].[B,D].[GB] | .[B,D].[GB].[B,D].[GB] | %24
 .[C=E].[=G=B].[CE].[_G_B] | .[DF].[CE].[B,D].[A,C] | .[=G,=B,].[F=A].[G,B,].[FA] | %27
 .[=G,=B,].[F=A].[G,B,] .[=E,^G,=D] | .[B,D].F.=E._E | .=D.[_D_F] .[CE].[=B,=D] | (!tenuto!B,4 | %31
 F) z z2 |{=DC_C} (!tenuto!B,4 | F) z z2 | .[=G,=B,].[F=A].[G,B,].[FA] | .[=G,=B,].[F=A].[G,B,] z | %36
 z2 z .[=E,^G,=D] | z [DF][GB][I:staff -1][F,=A,] |[I:staff +1][K:bass] .B,, z z2 |] %39
V:3
 x4 | x4 | x4 | x4 | x4 | x4 | x4 | x4 | x4 | x4 | x4 | x4 | x4 | x4 | x4 | x4 | x4 | x4 | x4 | %19
 x4 | B4- | B4 | x4 | x4 | x4 | z (A=G/).G/._G | F z z2 | x4 | B4- | B4 | x4 | x4 | x4 | %33
 .D.[GB].D.[GB] | x4 | x4 | x4 | x4 | x4 |] %39

